packages/foundations/assets/icons/functional/images/audio & video/volume_down_20.svg

<svg xmlns="http://www.w3.org/2000/svg" width="20" height="20" fill="none"><g clip-path="url(#a)"><path fill="#1A1C1F" fill-rule="evenodd" d="M11.018 4c.564 0 1.003.469 1.003 1v10c0 .563-.439 1-1.003 1-.188 0-.376-.063-.532-.156L7.728 14h-.72C5.348 14 4 12.656 4 11.031v-2C4 7.375 5.347 6 7.008 6h.72l2.758-1.813A.85.85 0 0 1 11.018 4m-1.002 2.875-1.442.969c-.17.103-.365.157-.564.156H7.008c-.564 0-1.003.469-1.003 1v2c0 .563.439 1 1.003 1H8.01c.22 0 .408.094.564.188l1.442.937zM12.992 12c0-1 1.003-1 1.003-1.969 0-1-1.003-1-1.003-2 0-.5.501-1.031 1.003-1.031C14.997 7 16 8.5 16 10.031c0 1.5-1.003 3-2.005 3-.502 0-1.003-.5-1.003-1.031" clip-rule="evenodd"/></g><defs><clipPath id="a"><path fill="#fff" d="M0 0h20v20H0z"/></clipPath></defs></svg>

<svg width="20" height="20" viewBox="0 0 20 20" fill="none" xmlns="http://www.w3.org/2000/svg">
<g clip-path="url(#clip0_184_388)">
<path fill-rule="evenodd" clip-rule="evenodd" d="M11.018 4C11.582 4 12.021 4.469 12.021 5V15C12.021 15.563 11.582 16 11.018 16C10.83 16 10.642 15.937 10.486 15.844L7.728 14H7.008C5.348 14 4 12.656 4 11.031V9.031C4 7.375 5.347 6 7.008 6H7.728L10.486 4.187C10.637 4.06609 10.8246 4.00014 11.018 4ZM10.016 6.875L8.574 7.844C8.40386 7.94672 8.20875 8.00069 8.01 8H7.008C6.444 8 6.005 8.469 6.005 9V11C6.005 11.563 6.444 12 7.008 12H8.01C8.23 12 8.418 12.094 8.574 12.188L10.016 13.125V6.875ZM12.992 12C12.992 11 13.995 11 13.995 10.031C13.995 9.031 12.992 9.031 12.992 8.031C12.992 7.531 13.493 7 13.995 7C14.997 7 16 8.5 16 10.031C16 11.531 14.997 13.031 13.995 13.031C13.493 13.031 12.992 12.531 12.992 12Z" fill="#1A1C1F"/>
</g>
<defs>
<clipPath id="clip0_184_388">
<rect width="20" height="20" fill="white"/>
</clipPath>
</defs>
</svg>
